flaticon/music/clarinet.svg

<svg xmlns="http://www.w3.org/2000/svg" width="32" height="32" viewBox="0 0 24 24">
    <path d="M 23.882812 7.71875 L 22.988281 6.824219 C 22.972656 6.792969 22.949219 6.761719 22.921875 6.734375 L 17.21875 1.03125 C 17.191406 1.003906 17.160156 0.980469 17.125 0.960938 L 16.285156 0.121094 C 16.128906 -0.0351562 15.875 -0.0351562 15.71875 0.121094 C 15.5625 0.277344 15.5625 0.527344 15.71875 0.683594 L 16.507812 1.472656 C 16.476562 1.648438 16.433594 1.914062 16.375 2.238281 C 15.976562 4.382812 15.089844 6.082031 13.589844 7.582031 L 11.9375 9.234375 L 11.300781 8.597656 C 11.144531 8.441406 10.890625 8.441406 10.734375 8.597656 L 4.878906 14.453125 C 4.722656 14.609375 4.722656 14.863281 4.878906 15.019531 L 5.515625 15.65625 L 3.667969 17.503906 L 3.484375 17.316406 C 3.328125 17.160156 3.074219 17.160156 2.917969 17.316406 C 2.761719 17.472656 2.761719 17.726562 2.917969 17.882812 L 3.144531 18.105469 L 0.570312 21.054688 C 0.570312 21.054688 0.566406 21.058594 0.566406 21.058594 L 0.160156 21.523438 L 0.140625 21.546875 C -0.0703125 21.832031 -0.0429688 22.234375 0.207031 22.484375 L 1.515625 23.792969 C 1.652344 23.925781 1.832031 23.996094 2.015625 23.996094 C 2.175781 23.996094 2.335938 23.945312 2.476562 23.839844 L 2.9375 23.433594 L 5.890625 20.855469 L 6.117188 21.082031 C 6.195312 21.160156 6.296875 21.199219 6.402344 21.199219 C 6.503906 21.199219 6.605469 21.160156 6.683594 21.082031 C 6.839844 20.925781 6.839844 20.675781 6.683594 20.515625 L 6.496094 20.332031 L 6.535156 20.292969 C 6.605469 20.359375 6.699219 20.402344 6.800781 20.402344 L 7.601562 20.402344 C 7.707031 20.402344 7.808594 20.359375 7.882812 20.285156 L 8.285156 19.882812 C 8.359375 19.808594 8.402344 19.707031 8.402344 19.601562 L 8.402344 18.800781 C 8.402344 18.699219 8.359375 18.605469 8.292969 18.535156 L 8.535156 18.292969 C 8.605469 18.359375 8.699219 18.402344 8.800781 18.402344 L 9.601562 18.402344 C 9.707031 18.402344 9.808594 18.359375 9.882812 18.285156 L 10.285156 17.882812 C 10.359375 17.808594 10.402344 17.707031 10.402344 17.601562 L 10.402344 16.800781 C 10.402344 16.699219 10.359375 16.609375 10.292969 16.535156 L 10.535156 16.292969 C 10.605469 16.359375 10.699219 16.402344 10.800781 16.402344 L 11.601562 16.402344 C 11.707031 16.402344 11.808594 16.359375 11.882812 16.285156 L 12.28125 15.882812 C 12.359375 15.808594 12.398438 15.707031 12.398438 15.601562 L 12.398438 14.800781 C 12.398438 14.703125 12.359375 14.609375 12.292969 14.535156 L 12.53125 14.292969 C 12.605469 14.363281 12.699219 14.402344 12.800781 14.402344 L 13.601562 14.402344 C 13.707031 14.402344 13.808594 14.359375 13.882812 14.285156 L 14.28125 13.882812 C 14.359375 13.808594 14.398438 13.707031 14.398438 13.601562 L 14.398438 12.800781 C 14.398438 12.703125 14.359375 12.609375 14.292969 12.535156 L 14.53125 12.292969 C 14.605469 12.363281 14.699219 12.402344 14.800781 12.402344 L 15.601562 12.402344 C 15.707031 12.402344 15.808594 12.359375 15.882812 12.285156 L 16.28125 11.882812 C 16.359375 11.808594 16.398438 11.707031 16.398438 11.601562 L 16.398438 10.800781 C 16.398438 10.703125 16.359375 10.609375 16.292969 10.535156 L 16.417969 10.410156 C 17.964844 8.863281 19.648438 7.960938 21.714844 7.578125 C 22.039062 7.519531 22.304688 7.472656 22.480469 7.445312 L 23.316406 8.285156 C 23.394531 8.363281 23.496094 8.402344 23.597656 8.402344 C 23.703125 8.402344 23.804688 8.363281 23.882812 8.285156 C 24.039062 8.128906 24.039062 7.875 23.882812 7.71875 Z M 11.015625 9.449219 L 11.371094 9.800781 L 9.867188 11.308594 L 9.511719 10.953125 Z M 8.945312 11.519531 L 9.300781 11.871094 L 8.066406 13.105469 L 7.710938 12.753906 Z M 5.726562 14.738281 L 7.144531 13.316406 L 7.5 13.671875 L 6.082031 15.089844 Z M 6.082031 16.222656 L 6.574219 16.71875 C 6.652344 16.796875 6.757812 16.835938 6.859375 16.835938 C 6.960938 16.835938 7.0625 16.796875 7.140625 16.71875 C 7.296875 16.5625 7.296875 16.308594 7.140625 16.152344 L 6.648438 15.65625 L 8.066406 14.238281 L 8.910156 15.085938 C 8.988281 15.160156 9.09375 15.203125 9.195312 15.203125 C 9.296875 15.203125 9.398438 15.160156 9.476562 15.085938 C 9.632812 14.925781 9.632812 14.675781 9.476562 14.519531 L 8.632812 13.671875 L 9.867188 12.4375 L 10.710938 13.285156 C 10.789062 13.363281 10.890625 13.402344 10.996094 13.402344 C 11.097656 13.402344 11.199219 13.363281 11.277344 13.285156 C 11.433594 13.128906 11.433594 12.875 11.277344 12.71875 L 10.429688 11.871094 L 11.9375 10.367188 L 12.429688 10.863281 C 12.585938 11.019531 12.839844 11.019531 12.996094 10.863281 C 13.152344 10.707031 13.152344 10.453125 12.996094 10.296875 L 12.503906 9.800781 L 13.871094 8.429688 L 15.441406 10 L 14.800781 10 C 14.695312 10 14.59375 10.042969 14.519531 10.117188 L 14.117188 10.519531 C 14.042969 10.59375 14 10.695312 14 10.800781 L 14 11.601562 C 14 11.628906 14.003906 11.660156 14.011719 11.6875 L 13.6875 12.011719 C 13.660156 12.003906 13.628906 12.003906 13.601562 12.003906 L 12.800781 12.003906 C 12.695312 12.003906 12.59375 12.042969 12.519531 12.121094 L 12.117188 12.519531 C 12.042969 12.59375 12 12.695312 12 12.800781 L 12 13.601562 C 12 13.628906 12.003906 13.660156 12.011719 13.6875 L 11.6875 14.011719 C 11.660156 14.003906 11.628906 14.003906 11.601562 14.003906 L 10.800781 14.003906 C 10.695312 14.003906 10.59375 14.042969 10.519531 14.121094 L 10.117188 14.519531 C 10.042969 14.59375 10 14.695312 10 14.800781 L 10 15.601562 C 10 15.628906 10.003906 15.660156 10.011719 15.6875 L 9.6875 16.011719 C 9.660156 16.003906 9.628906 16.003906 9.601562 16.003906 L 8.800781 16.003906 C 8.695312 16.003906 8.59375 16.042969 8.519531 16.121094 L 8.117188 16.519531 C 8.042969 16.59375 8 16.695312 8 16.800781 L 8 17.601562 C 8 17.632812 8.003906 17.660156 8.011719 17.6875 L 7.6875 18.011719 C 7.660156 18.003906 7.628906 18.003906 7.601562 18.003906 L 6.800781 18.003906 C 6.695312 18.003906 6.59375 18.042969 6.519531 18.121094 L 6.117188 18.519531 C 6.042969 18.59375 6 18.695312 6 18.800781 L 6 19.601562 C 6 19.632812 6.003906 19.660156 6.011719 19.6875 L 5.953125 19.746094 L 4.253906 18.050781 Z M 0.828125 21.972656 L 1.167969 21.585938 C 1.332031 21.398438 1.558594 21.292969 1.800781 21.285156 C 2.050781 21.277344 2.28125 21.367188 2.457031 21.542969 C 2.632812 21.71875 2.722656 21.949219 2.714844 22.199219 C 2.707031 22.445312 2.601562 22.671875 2.414062 22.832031 L 2.027344 23.171875 Z M 3.492188 21.890625 C 3.433594 21.546875 3.273438 21.226562 3.023438 20.976562 C 2.773438 20.730469 2.453125 20.5625 2.109375 20.507812 L 3.710938 18.671875 L 5.328125 20.289062 Z M 7.601562 19.433594 L 7.4375 19.601562 L 6.96875 19.601562 L 6.816406 19.449219 L 6.800781 18.964844 L 6.96875 18.800781 L 7.4375 18.800781 L 7.601562 18.964844 Z M 9.601562 17.433594 L 9.4375 17.601562 L 8.96875 17.601562 L 8.816406 17.449219 L 8.800781 16.964844 L 8.96875 16.800781 L 9.433594 16.800781 L 9.449219 16.8125 L 9.601562 16.964844 Z M 11.601562 15.433594 L 11.4375 15.601562 L 10.96875 15.601562 L 10.816406 15.449219 L 10.800781 14.964844 L 10.96875 14.800781 L 11.433594 14.800781 L 11.449219 14.8125 C 11.449219 14.8125 11.449219 14.8125 11.449219 14.816406 L 11.601562 14.964844 Z M 13.601562 13.433594 L 13.433594 13.601562 L 12.964844 13.601562 L 12.8125 13.449219 L 12.800781 12.964844 L 12.964844 12.800781 L 13.433594 12.800781 L 13.449219 12.8125 C 13.449219 12.8125 13.449219 12.8125 13.449219 12.816406 L 13.601562 12.964844 Z M 15.601562 11.4375 L 15.433594 11.601562 L 14.964844 11.601562 L 14.8125 11.449219 L 14.800781 10.96875 L 14.964844 10.800781 L 15.433594 10.800781 L 15.449219 10.8125 C 15.449219 10.816406 15.449219 10.816406 15.449219 10.816406 L 15.601562 10.96875 Z M 21.570312 6.792969 C 19.464844 7.183594 17.730469 8.066406 16.140625 9.566406 L 14.433594 7.859375 C 15.871094 6.324219 16.761719 4.527344 17.160156 2.382812 C 17.175781 2.308594 17.1875 2.238281 17.199219 2.167969 L 21.785156 6.753906 C 21.714844 6.765625 21.644531 6.777344 21.570312 6.792969 Z M 21.570312 6.792969"/>
</svg>

<svg xmlns="http://www.w3.org/2000/svg" width="32" height="32" viewBox="0 0 24 24">
    <path d="M23.883 7.719l-.895-.895a.356.356 0 0 0-.066-.09l-5.703-5.703a.42.42 0 0 0-.094-.07l-.84-.84a.4.4 0 0 0-.566 0 .396.396 0 0 0 0 .563l.789.789c-.031.175-.074.441-.133.765-.398 2.145-1.285 3.844-2.785 5.344l-1.652 1.652-.637-.636a.4.4 0 0 0-.567 0L4.88 14.453a.4.4 0 0 0 0 .567l.637.636-1.848 1.848-.184-.188a.4.4 0 0 0-.566.567l.227.222-2.575 2.95-.004.004-.406.464-.02.024a.724.724 0 0 0 .067.937l1.309 1.309a.716.716 0 0 0 .5.203c.16 0 .32-.05.46-.156l.462-.406 2.953-2.579.226.227a.399.399 0 0 0 .567 0 .4.4 0 0 0 0-.566l-.188-.184.04-.039c.07.066.163.11.265.11h.8a.4.4 0 0 0 .282-.118l.402-.402a.4.4 0 0 0 .117-.281V18.8a.389.389 0 0 0-.109-.266l.242-.242c.07.066.164.11.266.11h.8a.4.4 0 0 0 .282-.118l.402-.402a.4.4 0 0 0 .117-.281V16.8a.396.396 0 0 0-.109-.266l.242-.242c.07.066.164.11.266.11h.8a.4.4 0 0 0 .282-.118l.398-.402a.384.384 0 0 0 .117-.281V14.8a.4.4 0 0 0-.105-.266l.238-.242c.074.07.168.11.27.11h.8a.4.4 0 0 0 .282-.118l.398-.402a.384.384 0 0 0 .117-.281V12.8a.4.4 0 0 0-.105-.266l.238-.242c.074.07.168.11.27.11h.8a.4.4 0 0 0 .282-.118l.398-.402a.384.384 0 0 0 .117-.281V10.8a.4.4 0 0 0-.105-.266l.125-.125c1.547-1.547 3.23-2.45 5.297-2.832.324-.058.59-.105.765-.133l.836.84a.399.399 0 0 0 .566 0 .4.4 0 0 0 0-.566zm-12.867 1.73l.355.352-1.504 1.508-.355-.356zm-2.07 2.07l.355.352-1.235 1.234-.355-.351zm-3.22 3.22l1.419-1.423.355.356-1.418 1.418zm.356 1.484l.492.496a.405.405 0 0 0 .285.117.4.4 0 0 0 .281-.684l-.492-.496 1.418-1.418.844.848a.423.423 0 0 0 .285.117.4.4 0 0 0 .281-.684l-.843-.847 1.234-1.235.844.848a.399.399 0 0 0 .566 0 .4.4 0 0 0 0-.566l-.847-.848 1.508-1.504.492.496a.4.4 0 0 0 .566-.566l-.492-.496L13.87 8.43l1.57 1.57h-.64a.4.4 0 0 0-.281.117l-.403.403a.4.4 0 0 0-.117.28v.802c0 .027.004.058.012.085l-.325.325c-.027-.008-.058-.008-.085-.008H12.8a.384.384 0 0 0-.281.117l-.403.399a.4.4 0 0 0-.117.28v.802c0 .027.004.058.012.085l-.325.325c-.027-.008-.058-.008-.085-.008H10.8a.384.384 0 0 0-.281.117l-.403.399a.4.4 0 0 0-.117.28v.802c0 .027.004.058.012.085l-.325.325c-.027-.008-.058-.008-.085-.008H8.8a.384.384 0 0 0-.281.117l-.403.399A.4.4 0 0 0 8 16.8v.802c0 .03.004.058.012.085l-.325.325c-.027-.008-.058-.008-.085-.008H6.8a.384.384 0 0 0-.281.117l-.403.399A.4.4 0 0 0 6 18.8v.802c0 .03.004.058.012.085l-.059.06-1.7-1.696zm-5.254 5.75l.34-.387a.872.872 0 0 1 .633-.3c.25-.009.48.081.656.257a.874.874 0 0 1 .258.656.859.859 0 0 1-.3.633l-.388.34zm2.664-.082a1.69 1.69 0 0 0-.469-.914 1.69 1.69 0 0 0-.914-.47l1.602-1.835 1.617 1.617zm4.11-2.457l-.165.168H6.97l-.153-.153-.015-.484.168-.164h.468l.165.164zm2-2l-.165.168H8.97l-.153-.153-.015-.484.168-.164h.465l.015.012.153.152zm2-2l-.165.168h-.468l-.153-.153-.015-.484.168-.164h.465l.015.011v.004l.153.149zm2-2l-.168.168h-.47l-.152-.153-.011-.484.164-.164h.469l.015.011v.004l.153.149zm2-1.996l-.168.164h-.47l-.152-.153-.011-.48.164-.168h.469l.015.011v.004l.153.153zm5.968-4.645c-2.105.39-3.84 1.273-5.43 2.773L14.435 7.86c1.437-1.535 2.328-3.332 2.726-5.476.016-.074.027-.145.04-.215l4.585 4.586c-.07.012-.14.023-.215.039zm0 0"/>
</svg>
